;FLAVOR:UltiGCode
;TIME:5758
;MATERIAL:12258
;MATERIAL2:0
;NOZZLE_DIAMETER:0.6
;MINX:70.827
;MINY:87.371
;MINZ:0.4
;MAXX:152.833
;MAXY:135.556
;MAXZ:19.3
;Generated with Cura_SteamEngine 4.8.0
M82 ;absolute extrusion mode
G0 F3000 Y50 ;avoid prime blob
G92 E0
G92 E0
G10
;LAYER_COUNT:127
;LAYER:0
M107
G0 F3927.3 X76.859 Y89.179 Z0.4
;TYPE:SKIRT
G11
G1 F1800 X77.523 Y88.714 E0.17185
G1 X78.229 Y88.316 E0.34367
G1 X78.971 Y87.99 E0.51549
G1 X79.742 Y87.739 E0.68738
G1 X80.533 Y87.565 E0.85908
G1 X81.387 Y87.466 E1.04134
G1 X82.728 Y87.382 E1.32619
G1 X83.539 Y87.371 E1.49814
G1 X84.346 Y87.441 E1.66987
G1 X85.143 Y87.589 E1.84172
G1 X85.921 Y87.815 E2.01347
G1 X86.673 Y88.117 E2.18527
G1 X87.392 Y88.491 E2.35709
G1 X88.07 Y88.935 E2.5289
G1 X88.702 Y89.443 E2.70081
G1 X88.772 Y89.512 E2.72164
G1 X89.719 Y89.177 E2.9346
G1 X90.204 Y89.045 E3.04116
G1 X90.995 Y88.871 E3.21286
G1 X91.658 Y88.787 E3.35454
G1 X92.205 Y88.74 E3.47093
G1 X92.928 Y88.71 E3.62434
G1 X93.557 Y88.734 E3.75778
G1 X94.156 Y88.78 E3.88515
G1 X94.96 Y88.882 E4.05696
G1 X95.711 Y89.052 E4.2202
G1 X96.197 Y89.186 E4.32708
G1 X96.966 Y89.439 E4.4987
G1 X97.707 Y89.767 E4.6705
G1 X98.371 Y90.144 E4.83237
G1 X98.616 Y89.979 E4.89499
G1 X99.329 Y89.595 E5.06668
G1 X100.077 Y89.283 E5.23849
G1 X100.853 Y89.047 E5.41044
G1 X101.647 Y88.888 E5.58211
G1 X102.859 Y88.798 E5.83977
G1 X122.208 Y88.798 E9.94175
G1 X123.017 Y88.838 E10.11347
G1 X123.819 Y88.958 E10.28539
G1 X124.605 Y89.155 E10.45717
G1 X125.367 Y89.43 E10.62892
G1 X126.099 Y89.778 E10.80074
G1 X126.7 Y90.141 E10.94959
G1 X127.168 Y89.86 E11.06532
G1 X127.901 Y89.513 E11.23725
G1 X128.848 Y89.187 E11.44958
G1 X129.328 Y89.054 E11.55517
G1 X130.119 Y88.877 E11.72701
G1 X130.82 Y88.786 E11.87687
G1 X131.356 Y88.74 E11.99092
G1 X132.078 Y88.71 E12.14411
G1 X132.707 Y88.734 E12.27756
G1 X133.293 Y88.779 E12.40216
G1 X134.097 Y88.881 E12.57397
G1 X134.848 Y89.051 E12.73721
G1 X135.334 Y89.185 E12.84409
G1 X136.103 Y89.438 E13.01571
G1 X136.844 Y89.766 E13.18751
G1 X137.549 Y90.166 E13.35935
G1 X138.043 Y90.506 E13.48648
G1 X138.175 Y90.428 E13.51899
G1 X138.909 Y90.086 E13.69066
G1 X139.674 Y89.817 E13.86257
G1 X140.462 Y89.626 E14.03447
G1 X141.264 Y89.513 E14.20617
G1 X142.074 Y89.479 E14.37804
G1 X142.535 Y89.496 E14.47584
G1 X143.874 Y89.582 E14.76029
G1 X144.679 Y89.674 E14.93206
G1 X145.471 Y89.844 E15.10379
G1 X146.243 Y90.092 E15.27569
G1 X146.986 Y90.415 E15.44745
G1 X147.694 Y90.809 E15.61922
G1 X148.366 Y91.276 E15.79271
G1 X148.493 Y91.374 E15.82672
G1 X149.109 Y91.9 E15.99844
G1 X149.671 Y92.485 E16.17042
G1 X150.172 Y93.122 E16.34223
G1 X150.608 Y93.805 E16.51401
G1 X150.975 Y94.527 E16.68571
G1 X151.373 Y95.621 E16.93251
G1 X151.481 Y95.999 E17.01585
G1 X151.665 Y96.788 E17.18761
G1 X151.77 Y97.592 E17.35951
G1 X151.797 Y98.256 E17.50039
G1 X151.798 Y118.534 E21.79933
G1 X151.869 Y118.653 E21.8287
G1 X152.214 Y119.386 E22.00045
G1 X152.485 Y120.15 E22.17231
G1 X152.68 Y120.936 E22.34399
G1 X152.796 Y121.738 E22.51578
G1 X152.833 Y122.514 E22.68048
G1 X152.833 Y124.954 E23.19776
G1 X152.801 Y125.68 E23.35182
G1 X152.786 Y125.849 E23.38779
G1 X152.674 Y126.652 E23.55968
G1 X152.485 Y127.437 E23.73085
G1 X152.251 Y128.234 E23.90695
G1 X151.985 Y129 E24.07885
G1 X151.644 Y129.735 E24.25063
G1 X151.233 Y130.433 E24.42235
G1 X150.755 Y131.088 E24.59425
G1 X150.215 Y131.692 E24.76601
G1 X149.374 Y132.434 E25.00378
G1 X148.718 Y132.938 E25.17916
G1 X148.052 Y133.4 E25.351
G1 X147.343 Y133.793 E25.52285
G1 X146.599 Y134.115 E25.69472
G1 X145.828 Y134.362 E25.86635
G1 X145.035 Y134.532 E26.03829
G1 X144.06 Y134.632 E26.24607
G1 X142.286 Y134.707 E26.6225
G1 X141.476 Y134.701 E26.79422
G1 X140.67 Y134.615 E26.96606
G1 X139.876 Y134.451 E27.13794
G1 X139.103 Y134.209 E27.30966
G1 X138.357 Y133.892 E27.4815
G1 X137.646 Y133.503 E27.65332
G1 X137.071 Y133.11 E27.80097
G1 X136.992 Y133.157 E27.82046
G1 X136.258 Y133.5 E27.99222
G1 X135.339 Y133.814 E28.19811
G1 X134.858 Y133.947 E28.3039
G1 X134.068 Y134.124 E28.47554
G1 X133.373 Y134.214 E28.62411
G1 X132.838 Y134.26 E28.73794
G1 X132.028 Y134.289 E28.90977
G1 X131.527 Y134.268 E29.01608
G1 X130.92 Y134.223 E29.14512
G1 X130.115 Y134.123 E29.31709
G1 X129.348 Y133.951 E29.48373
G1 X128.861 Y133.817 E29.59081
G1 X128.091 Y133.563 E29.7627
G1 X127.35 Y133.235 E29.9345
G1 X126.686 Y132.86 E30.09616
G1 X126.332 Y133.089 E30.18555
G1 X125.612 Y133.462 E30.35745
G1 X124.859 Y133.761 E30.52921
G1 X124.08 Y133.985 E30.70105
G1 X123.283 Y134.131 E30.87283
G1 X122.204 Y134.202 E31.10207
G1 X102.863 Y134.202 E35.20236
G1 X102.054 Y134.162 E35.37408
G1 X101.252 Y134.042 E35.546
G1 X100.466 Y133.845 E35.71778
G1 X99.704 Y133.57 E35.88953
G1 X98.972 Y133.222 E36.06135
G1 X98.364 Y132.855 E36.21191
G1 X98.042 Y133.057 E36.2925
G1 X97.317 Y133.419 E36.46429
G1 X96.559 Y133.708 E36.63627
G1 X96.17 Y133.824 E36.72233
G1 X95.684 Y133.956 E36.82909
G1 X94.893 Y134.129 E37.00075
G1 X94.234 Y134.213 E37.14159
G1 X93.687 Y134.26 E37.25798
G1 X92.964 Y134.29 E37.41139
G1 X92.335 Y134.266 E37.54483
G1 X91.736 Y134.22 E37.67219
G1 X90.932 Y134.118 E37.84401
G1 X90.177 Y133.947 E38.00812
G1 X89.692 Y133.813 E38.11479
G1 X88.923 Y133.559 E38.28648
G1 X88.702 Y133.461 E38.33774
G1 X88.249 Y133.85 E38.46432
G1 X87.584 Y134.314 E38.63623
G1 X86.878 Y134.71 E38.80784
G1 X86.135 Y135.035 E38.97976
G1 X85.364 Y135.285 E39.15159
G1 X84.572 Y135.458 E39.32345
G1 X83.767 Y135.552 E39.49527
G1 X82.734 Y135.556 E39.71427
G1 X81.314 Y135.472 E40.01584
G1 X80.508 Y135.384 E40.18773
G1 X79.715 Y135.217 E40.35953
G1 X78.942 Y134.973 E40.53138
G1 X78.197 Y134.654 E40.70319
G1 X77.487 Y134.264 E40.87492
G1 X76.819 Y133.805 E41.04674
G1 X76.2 Y133.282 E41.21854
G1 X75.635 Y132.701 E41.39035
G1 X75.13 Y132.067 E41.56219
G1 X74.689 Y131.387 E41.73401
G1 X74.319 Y130.666 E41.90581
G1 X74.02 Y129.913 E42.07757
G1 X73.798 Y129.133 E42.2495
G1 X73.653 Y128.336 E42.42124
G1 X73.586 Y127.875 E42.52
G1 X73.304 Y127.097 E42.69543
G1 X73.114 Y126.477 E42.83291
G1 X73.041 Y126.227 E42.88812
G1 X72.869 Y125.595 E43.02698
G1 X72.661 Y124.584 E43.2458
G1 X72.651 Y124.513 E43.261
G1 X72.571 Y123.367 E43.50454
G1 X72.571 Y121.916 E43.81215
G1 X72.379 Y121.634 E43.88448
G1 X71.991 Y120.923 E44.05619
G1 X71.675 Y120.176 E44.22814
G1 X71.434 Y119.402 E44.4
G1 X71.241 Y118.402 E44.61592
G1 X71.151 Y117.704 E44.76512
G1 X71.097 Y117.112 E44.89114
G1 X70.84 Y112.521 E45.86596
G1 X70.827 Y112.062 E45.9633
G1 X70.827 Y111.048 E46.17827
G1 X70.841 Y110.567 E46.28029
G1 X71.131 Y105.62 E47.33085
G1 X71.193 Y104.984 E47.46632
G1 X71.253 Y104.547 E47.55984
G1 X71.403 Y103.75 E47.73177
G1 X71.631 Y102.972 E47.90364
G1 X71.934 Y102.221 E48.07532
G1 X72.309 Y101.502 E48.24724
G1 X72.571 Y101.103 E48.34843
G1 X72.571 Y99.615 E48.66389
G1 X72.646 Y98.505 E48.89974
G1 X72.652 Y98.461 E48.90916
G1 X72.864 Y97.42 E49.13438
G1 X73.049 Y96.738 E49.28419
G1 X73.127 Y96.468 E49.34377
G1 X73.317 Y95.852 E49.48043
G1 X73.594 Y95.09 E49.65232
G1 X73.738 Y94.789 E49.72306
G1 X73.746 Y94.677 E49.74686
G1 X73.883 Y93.879 E49.91851
G1 X74.098 Y93.097 E50.09045
G1 X74.389 Y92.341 E50.26218
G1 X74.753 Y91.617 E50.43398
G1 X75.186 Y90.932 E50.60578
G1 X75.685 Y90.294 E50.77749
G1 X76.245 Y89.707 E50.94948
G1 X76.859 Y89.179 E51.12116
G0 F3927.3 X77.37 Y89.458
G1 F1800 X78.025 Y89.029 E51.28715
G1 X78.722 Y88.669 E51.45346
G1 X79.451 Y88.381 E51.61963
G1 X80.206 Y88.169 E51.78588
G1 X80.978 Y88.036 E51.95196
G1 X81.421 Y87.995 E52.04628
G1 X82.762 Y87.911 E52.33113
G1 X83.545 Y87.902 E52.49713
G1 X84.326 Y87.973 E52.66339
G1 X85.095 Y88.123 E52.82949
G1 X85.845 Y88.35 E52.99561
G1 X86.568 Y88.653 E53.1618
G1 X87.257 Y89.028 E53.3281
G1 X87.903 Y89.471 E53.49416
G1 X88.502 Y89.978 E53.66053
G1 X88.654 Y90.136 E53.70701
G1 X88.836 Y90.046 E53.75006
G1 X89.858 Y89.689 E53.97956
G1 X90.343 Y89.557 E54.08612
G1 X91.109 Y89.39 E54.25233
G1 X91.703 Y89.315 E54.37925
G1 X92.25 Y89.268 E54.49565
G1 X92.928 Y89.24 E54.6395
G1 X93.516 Y89.263 E54.76426
G1 X94.115 Y89.309 E54.89162
G1 X94.893 Y89.408 E55.05788
G1 X95.57 Y89.562 E55.20507
G1 X96.056 Y89.696 E55.31195
G1 X96.8 Y89.943 E55.47814
G1 X97.515 Y90.264 E55.6443
G1 X98.366 Y90.785 E55.85584
G1 X98.469 Y90.705 E55.88349
G1 X99.134 Y90.291 E56.04955
G1 X99.838 Y89.947 E56.21567
G1 X100.574 Y89.676 E56.38194
G1 X101.333 Y89.481 E56.54807
G1 X102.108 Y89.365 E56.7142
G1 X102.859 Y89.328 E56.87361
G1 X122.208 Y89.328 E60.9756
G1 X122.991 Y89.368 E61.14181
G1 X123.765 Y89.487 E61.30782
G1 X124.524 Y89.685 E61.47412
G1 X125.258 Y89.959 E61.64021
G1 X125.961 Y90.307 E61.80651
G1 X126.625 Y90.724 E61.97274
G1 X126.686 Y90.772 E61.98919
G1 X126.768 Y90.717 E62.01012
G1 X127.441 Y90.315 E62.17632
G1 X128.151 Y89.984 E62.34239
G1 X128.99 Y89.698 E62.53031
G1 X129.47 Y89.565 E62.6359
G1 X130.235 Y89.395 E62.80204
G1 X130.865 Y89.314 E62.9367
G1 X131.401 Y89.268 E63.05075
G1 X132.078 Y89.24 E63.19439
G1 X132.666 Y89.263 E63.31914
G1 X133.252 Y89.308 E63.44374
G1 X134.03 Y89.407 E63.61001
G1 X134.707 Y89.561 E63.7572
G1 X135.193 Y89.695 E63.86408
G1 X135.937 Y89.942 E64.03027
G1 X136.652 Y90.263 E64.19642
G1 X137.33 Y90.655 E64.36245
G1 X137.758 Y90.954 E64.47314
G1 X138.002 Y91.137 E64.5378
G1 X138.675 Y90.769 E64.70041
G1 X139.397 Y90.466 E64.86641
G1 X140.147 Y90.238 E65.03259
G1 X140.917 Y90.087 E65.19894
G1 X141.697 Y90.015 E65.36501
G1 X142.501 Y90.025 E65.53547
G1 X143.84 Y90.111 E65.81992
G1 X144.618 Y90.201 E65.98596
G1 X145.384 Y90.37 E66.15225
G1 X146.128 Y90.616 E66.31838
G1 X146.843 Y90.936 E66.48445
G1 X147.522 Y91.328 E66.65066
G1 X148.042 Y91.696 E66.78572
G1 X148.169 Y91.794 E66.81972
G1 X148.764 Y92.304 E66.98586
G1 X149.305 Y92.872 E67.15216
G1 X149.784 Y93.492 E67.31825
G1 X150.198 Y94.157 E67.48432
G1 X150.542 Y94.861 E67.65043
G1 X150.863 Y95.767 E67.85421
G1 X150.971 Y96.145 E67.93755
G1 X151.148 Y96.908 E68.1036
G1 X151.246 Y97.686 E68.26984
G1 X151.267 Y98.256 E68.39076
G1 X151.268 Y118.681 E72.72086
G1 X151.437 Y118.97 E72.79184
G1 X151.763 Y119.683 E72.95804
G1 X152.014 Y120.426 E73.1243
G1 X152.188 Y121.19 E73.29042
G1 X152.284 Y121.968 E73.45661
G1 X152.303 Y122.514 E73.57243
G1 X152.303 Y124.954 E74.08971
G1 X152.273 Y125.633 E74.2338
G1 X152.258 Y125.802 E74.26976
G1 X152.149 Y126.579 E74.4361
G1 X151.977 Y127.288 E74.59077
G1 X151.743 Y128.085 E74.76687
G1 X151.484 Y128.825 E74.93308
G1 X151.151 Y129.534 E75.09914
G1 X150.748 Y130.206 E75.26526
G1 X150.278 Y130.834 E75.43155
G1 X149.746 Y131.41 E75.59778
G1 X149.051 Y132.014 E75.79298
G1 X148.395 Y132.518 E75.96836
G1 X147.75 Y132.963 E76.13449
G1 X147.063 Y133.341 E76.30072
G1 X146.341 Y133.646 E76.46688
G1 X145.592 Y133.876 E76.63299
G1 X144.823 Y134.028 E76.79917
G1 X144.038 Y134.102 E76.96633
G1 X142.264 Y134.177 E77.34275
G1 X141.48 Y134.17 E77.50897
G1 X140.701 Y134.084 E77.67512
G1 X139.935 Y133.918 E77.84128
G1 X139.189 Y133.675 E78.00761
G1 X138.473 Y133.358 E78.17361
G1 X137.792 Y132.969 E78.33988
G1 X137.155 Y132.513 E78.50596
G1 X137.108 Y132.472 E78.51918
G1 X136.721 Y132.701 E78.61451
G1 X136.01 Y133.029 E78.78051
G1 X135.198 Y133.303 E78.96219
G1 X134.717 Y133.436 E79.06799
G1 X133.952 Y133.606 E79.23413
G1 X133.327 Y133.686 E79.36771
G1 X132.792 Y133.732 E79.48155
G1 X132.009 Y133.759 E79.64764
G1 X131.566 Y133.739 E79.74165
G1 X130.959 Y133.694 E79.87069
G1 X130.181 Y133.596 E80.03693
G1 X129.488 Y133.44 E80.18752
G1 X129.001 Y133.306 E80.2946
G1 X128.257 Y133.059 E80.4608
G1 X127.542 Y132.739 E80.62686
G1 X126.863 Y132.347 E80.79308
G1 X126.683 Y132.221 E80.83966
G1 X126.491 Y132.365 E80.89054
G1 X125.819 Y132.769 E81.05677
G1 X125.109 Y133.102 E81.22302
G1 X124.369 Y133.361 E81.38923
G1 X123.607 Y133.543 E81.55532
G1 X122.83 Y133.646 E81.72148
G1 X122.204 Y133.672 E81.85431
G1 X102.863 Y133.672 E85.9546
G1 X102.08 Y133.632 E86.12081
G1 X101.306 Y133.513 E86.28683
G1 X100.547 Y133.315 E86.45312
G1 X99.813 Y133.041 E86.61922
G1 X99.11 Y132.693 E86.78552
G1 X98.446 Y132.276 E86.95174
G1 X98.377 Y132.222 E86.97032
G1 X97.76 Y132.608 E87.12461
G1 X97.057 Y132.954 E87.29072
G1 X96.031 Y133.312 E87.52109
G1 X95.545 Y133.444 E87.62786
G1 X94.779 Y133.611 E87.79406
G1 X94.189 Y133.685 E87.92012
G1 X93.642 Y133.732 E88.03651
G1 X92.964 Y133.76 E88.18037
G1 X92.376 Y133.737 E88.30512
G1 X91.777 Y133.691 E88.43249
G1 X90.999 Y133.592 E88.59875
G1 X90.318 Y133.436 E88.74686
G1 X89.833 Y133.302 E88.85354
G1 X89.089 Y133.055 E89.01973
G1 X88.595 Y132.833 E89.13455
G1 X88.291 Y133.128 E89.22435
G1 X87.677 Y133.615 E89.39049
G1 X87.016 Y134.037 E89.55675
G1 X86.315 Y134.389 E89.72304
G1 X85.583 Y134.667 E89.88904
G1 X84.826 Y134.87 E90.0552
G1 X84.052 Y134.995 E90.22141
G1 X83.269 Y135.04 E90.38768
G1 X82.765 Y135.027 E90.49456
G1 X81.345 Y134.943 E90.79613
G1 X80.566 Y134.856 E90.9623
G1 X79.8 Y134.691 E91.12842
G1 X79.054 Y134.449 E91.29469
G1 X78.337 Y134.132 E91.46088
G1 X77.657 Y133.744 E91.62686
G1 X77.019 Y133.288 E91.79311
G1 X76.431 Y132.77 E91.95924
G1 X75.898 Y132.195 E92.12546
G1 X75.428 Y131.568 E92.29158
G1 X75.023 Y130.897 E92.45773
G1 X74.689 Y130.188 E92.62389
G1 X74.429 Y129.448 E92.79017
G1 X74.245 Y128.686 E92.95635
G1 X74.141 Y127.909 E93.12255
G1 X74.14 Y127.799 E93.14587
G1 X73.942 Y127.335 E93.25282
G1 X73.81 Y126.942 E93.34071
G1 X73.62 Y126.322 E93.47818
G1 X73.553 Y126.088 E93.52978
G1 X73.381 Y125.456 E93.66864
G1 X73.186 Y124.51 E93.87341
G1 X73.176 Y124.439 E93.88861
G1 X73.101 Y123.367 E94.11643
G1 X73.101 Y121.769 E94.4552
G1 X72.688 Y121.114 E94.61936
G1 X72.34 Y120.411 E94.78566
G1 X72.065 Y119.678 E94.95163
G1 X71.866 Y118.919 E95.11798
G1 X71.767 Y118.334 E95.24376
G1 X71.677 Y117.636 E95.39296
G1 X71.626 Y117.083 E95.5107
G1 X71.369 Y112.492 E96.48551
G1 X71.357 Y112.062 E96.57671
G1 X71.357 Y111.048 E96.79168
G1 X71.37 Y110.598 E96.88712
G1 X71.66 Y105.651 E97.93768
G1 X71.718 Y105.056 E98.06442
G1 X71.778 Y104.619 E98.15793
G1 X71.925 Y103.849 E98.32412
G1 X72.148 Y103.097 E98.49041
G1 X72.447 Y102.373 E98.65647
G1 X72.819 Y101.683 E98.82265
G1 X73.101 Y101.267 E98.9292
G1 X73.101 Y99.615 E99.27942
G1 X73.171 Y98.577 E99.49998
G1 X73.177 Y98.533 E99.50939
G1 X73.375 Y97.559 E99.7201
G1 X73.56 Y96.877 E99.86991
G1 X73.633 Y96.624 E99.92574
G1 X73.823 Y96.008 E100.0624
G1 X74.092 Y95.272 E100.22853
G1 X74.26 Y94.928 E100.30969
G1 X74.275 Y94.716 E100.35474
G1 X74.411 Y93.944 E100.52093
G1 X74.626 Y93.19 E100.68715
G1 X74.916 Y92.461 E100.85347
G1 X75.278 Y91.767 E101.01942
G1 X75.71 Y91.112 E101.18576
G1 X76.206 Y90.505 E101.35194
G1 X76.761 Y89.952 E101.51804
G1 X77.37 Y89.458 E101.68428
G0 F3927.3 X77.276 Y90.206
G1 F1800 X77.878 Y89.748 E101.84464
G1 X78.525 Y89.357 E102.00491
G1 X79.209 Y89.036 E102.16509
G1 X79.924 Y88.789 E102.32546
G1 X80.661 Y88.618 E102.48585
G1 X81.454 Y88.524 E102.65515
G1 X82.795 Y88.44 E102.93999
G1 X83.551 Y88.433 E103.10027
G1 X84.304 Y88.505 E103.26064
G1 X85.045 Y88.657 E103.421
G1 X85.766 Y88.886 E103.58138
G1 X86.458 Y89.19 E103.74161
G1 X87.115 Y89.565 E103.90199
G1 X87.728 Y90.007 E104.0622
G1 X88.292 Y90.512 E104.2227
G1 X88.536 Y90.783 E104.30001
G1 X89.095 Y90.512 E104.43171
G1 X89.997 Y90.2 E104.63405
G1 X90.482 Y90.068 E104.74061
G1 X91.221 Y89.908 E104.9009
G1 X91.748 Y89.843 E105.01348
G1 X92.295 Y89.796 E105.12987
G1 X92.928 Y89.77 E105.26418
G1 X93.476 Y89.791 E105.38044
G1 X94.075 Y89.837 E105.5078
G1 X94.825 Y89.935 E105.66815
G1 X95.429 Y90.073 E105.7995
G1 X95.915 Y90.207 E105.90637
G1 X96.632 Y90.447 E106.06667
G1 X97.32 Y90.76 E106.22691
G1 X98.204 Y91.306 E106.44718
G1 X98.38 Y91.433 E106.49319
G1 X98.993 Y90.993 E106.65316
G1 X99.65 Y90.618 E106.81354
G1 X100.343 Y90.315 E106.97388
G1 X101.064 Y90.087 E107.1342
G1 X101.805 Y89.936 E107.29452
G1 X102.859 Y89.858 E107.51857
G1 X122.208 Y89.858 E111.62056
G1 X122.963 Y89.898 E111.78085
G1 X123.71 Y90.017 E111.94121
G1 X124.44 Y90.215 E112.10156
G1 X125.145 Y90.489 E112.26191
G1 X125.817 Y90.835 E112.42215
G1 X126.449 Y91.251 E112.58255
G1 X126.67 Y91.432 E112.64311
G1 X127.063 Y91.158 E112.74468
G1 X127.713 Y90.771 E112.90506
G1 X128.4 Y90.455 E113.06537
